X: 39
T:Cup of Tea, The
R:reel
S:Bev
M:4/4
L:1/8
K:EDor
|BAGF GE~E2|GEBE GE~E2|BAGF GE~E2|FDAG FD~D2|
BAGF GE~E2|GEBE GE~E2|BAGF GABc|dBAG FD~D2:|
|:~d3 g fdec|d2 eg fBBA|~d3 g fdec|dfag fddc|
~d3 g fdec|dfaf ~g2 fg|afge fdec|dBAG FD ~D2:|
|:FA~A2 FAdA|FAdA FE~E2|FA~A2 BABc|dBAG FD~D2|
FA~A2 FAdA|FAde fe zg|fedc dBAF|GBAG FD ~D2||

